X:515
T:Belles of Tipperary, The
T:New Policeman, The
T:Bells of Tipperary, The
R:reel
H:See also #633
Z:id:hn-reel-515
M:C|
K:D
DA,~A,2 DEFA|d2fe dBBA|B2AF ABde|fede fe~e2|
dA~A2 DEFA|d2fe dBBA|B2AF ABdB|AFEG FDD2:|
|:fa~a2 afdf|gfed (3Bcd ef|g2gf gbag|faaf egfe|
dB~B2 AF~F2|DF~F2 ABdf|afef dBAF|Adag fd~d2:|
